brandFactory_export/1.Light/Foro_1Light.svg

<?xml version="1.0" encoding="UTF-8"?>
<svg width="24px" height="24px" viewBox="0 0 24 24" version="1.1" xmlns="http://www.w3.org/2000/svg" xmlns:xlink="http://www.w3.org/1999/xlink">
    <title>1.Light/Foro_1Light</title>
    <g id="Symbols" stroke="none" stroke-width="1" fill="none" fill-rule="evenodd">
        <g id="1.Light/Foro_1Light" fill="#5CB615" fill-rule="nonzero">
            <path d="M10.8907563,17.3747899 C12.4033613,17.3747899 13.5663866,17.7714286 14.3428571,18.5579832 C15.1193277,19.3445378 15.5159664,20.507563 15.5159664,22.0302521 L15.5159664,23.2806723 C15.5159664,23.4621849 15.3647059,23.6134454 15.1798319,23.6134454 L0.336134454,23.6134454 C0.151260505,23.6134454 4.10889101e-10,23.4621849 4.10889101e-10,23.2773109 L4.10889101e-10,22.0268908 C4.10889101e-10,20.507563 0.393277311,19.3378151 1.17310924,18.5546218 C1.95294118,17.7714286 3.11260504,17.3747899 4.62521008,17.3747899 L10.8907563,17.3747899 Z M10.8907563,18.0470588 L4.62521008,18.0470588 C3.29747899,18.0470588 2.29579832,18.3764706 1.64705882,19.0285714 C0.998319328,19.6806723 0.672268908,20.692437 0.672268908,22.0268908 L0.672268908,22.9411765 L14.8436975,22.9411765 L14.8436975,22.0268908 C14.8436975,20.6890756 14.5142857,19.6806723 13.8689076,19.0285714 C13.2235294,18.3764706 12.2184874,18.0470588 10.8907563,18.0470588 Z M7.75798319,7.86554622 C9.11932773,7.86554622 10.1747899,8.25210084 10.8941176,9.01512605 C11.5731092,9.73445378 11.9193277,10.7495798 11.9193277,12.0302521 C11.9193277,13.3109244 11.5731092,14.3226891 10.8941176,15.0453782 C10.1747899,15.805042 9.11932773,16.1915966 7.75798319,16.1915966 C6.39663866,16.1915966 5.34117647,15.805042 4.62184874,15.0420168 C3.9394958,14.3226891 3.59663866,13.3109244 3.59663866,12.0302521 C3.59663866,10.7495798 3.94285714,9.73781513 4.62184874,9.01512605 C5.34117647,8.25210084 6.39663866,7.86554622 7.75798319,7.86554622 Z M7.75798319,8.53781513 C4.87394958,8.53781513 4.26890756,10.4369748 4.26890756,12.0302521 C4.26890756,14.9142857 6.16806723,15.5193277 7.75798319,15.5193277 C10.6420168,15.5193277 11.2470588,13.6201681 11.2470588,12.0302521 C11.2470588,10.4403361 10.6420168,8.53781513 7.75798319,8.53781513 Z M22.0134454,-8.70414851e-13 C22.897479,-8.70414851e-13 23.6134454,0.715966387 23.6134454,1.6 L23.6134454,6.28235294 C23.6134454,7.16638655 22.897479,7.88235294 22.0134454,7.88235294 L16.9042017,7.88235294 C16.507563,8.47394958 15.7411765,9.62352941 15.697479,9.69411765 C15.6033613,9.83529412 15.3747899,10.1882353 15.005042,10.1882353 C14.9680672,10.1882353 14.9310924,10.1848739 14.8941176,10.1781513 C14.4596639,10.1011204 14.4234594,9.72752101 14.4204423,9.55445845 L14.4201681,7.88235294 L13.9529412,7.88235294 C13.0991597,7.88235294 12.4537815,7.19327731 12.4537815,6.28235294 L12.4537815,1.6 C12.4537815,0.715966387 13.1731092,-8.70414851e-13 14.0537815,-8.70414851e-13 L22.0134454,-8.70414851e-13 Z M22.0134454,0.672268908 L14.0537815,0.672268908 C13.5394958,0.672268908 13.1260504,1.08907563 13.1260504,1.6 L13.1260504,6.28235294 C13.1260504,6.8302521 13.4655462,7.21008403 13.9529412,7.21008403 L14.7563025,7.21008403 C14.9411765,7.21008403 15.092437,7.36134454 15.092437,7.54621849 L15.092437,9.38487395 C15.102521,9.36806723 15.1159664,9.3512605 15.1294118,9.33109244 C15.1932773,9.2302521 16.3932773,7.43529412 16.4436975,7.36134454 C16.507563,7.26722689 16.6117647,7.21008403 16.7226891,7.21344538 L22.0134454,7.21344538 C22.5243697,7.21344538 22.9411765,6.79663866 22.9411765,6.28571429 L22.9411765,1.6 C22.9411765,1.08907563 22.5243697,0.672268908 22.0134454,0.672268908 Z M15.4117647,2.95798319 C15.9596639,2.95798319 16.4033613,3.40168067 16.4033613,3.94957983 C16.4033613,4.49747899 15.9596639,4.94117647 15.4117647,4.94117647 C14.8638655,4.94117647 14.4201681,4.49747899 14.4201681,3.94957983 C14.4201681,3.40168067 14.8638655,2.95798319 15.4117647,2.95798319 Z M18.0336134,2.95798319 C18.5815126,2.95798319 19.0252101,3.40168067 19.0252101,3.94957983 C19.0252101,4.49747899 18.5815126,4.94117647 18.0336134,4.94117647 C17.4857143,4.94117647 17.0420168,4.49747899 17.0420168,3.94957983 C17.0420168,3.40168067 17.4857143,2.95798319 18.0336134,2.95798319 Z M20.6554622,2.95798319 C21.2033613,2.95798319 21.6470588,3.40168067 21.6470588,3.94957983 C21.6470588,4.49747899 21.2033613,4.94117647 20.6554622,4.94117647 C20.107563,4.94117647 19.6638655,4.49747899 19.6638655,3.94957983 C19.6638655,3.40168067 20.107563,2.95798319 20.6554622,2.95798319 Z" id="Foro_1Light"></path>
        </g>
    </g>
</svg>

<svg width="24" height="24" viewBox="0 0 24 24" xmlns="http://www.w3.org/2000/svg"><path d="M10.89 17.375c1.513 0 2.676.396 3.453 1.183.776.787 1.173 1.95 1.173 3.472v1.25a.336.336 0 01-.336.333H.336A.337.337 0 010 23.277v-1.25c0-1.52.393-2.69 1.173-3.472.78-.784 1.94-1.18 3.452-1.18h6.266zm0 .672H4.626c-1.328 0-2.33.33-2.978.982-.649.652-.975 1.663-.975 2.998v.914h14.172v-.914c0-1.338-.33-2.346-.975-2.998-.645-.653-1.65-.982-2.978-.982zM7.759 7.866c1.361 0 2.417.386 3.136 1.15.68.718 1.025 1.734 1.025 3.014 0 1.28-.346 2.293-1.025 3.015-.72.76-1.775 1.147-3.136 1.147-1.361 0-2.417-.387-3.136-1.15-.683-.72-1.025-1.731-1.025-3.012 0-1.28.346-2.292 1.025-3.015.72-.763 1.775-1.15 3.136-1.15zm0 .672c-2.884 0-3.49 1.899-3.49 3.492 0 2.884 1.9 3.49 3.49 3.49 2.884 0 3.49-1.9 3.49-3.49 0-1.59-.606-3.492-3.49-3.492zM22.013 0a1.6 1.6 0 011.6 1.6v4.682a1.6 1.6 0 01-1.6 1.6h-5.109c-.396.592-1.163 1.742-1.207 1.812-.094.141-.322.494-.692.494a.619.619 0 01-.11-.01c-.435-.077-.472-.45-.475-.624V7.882h-.467c-.854 0-1.5-.689-1.5-1.6V1.6c0-.884.72-1.6 1.6-1.6h7.96zm0 .672h-7.96a.927.927 0 00-.927.928v4.682c0 .548.34.928.827.928h.803c.185 0 .336.151.336.336v1.839c.01-.017.024-.034.037-.054.064-.1 1.264-1.896 1.315-1.97a.328.328 0 01.279-.148h5.29a.93.93 0 00.928-.927V1.6a.93.93 0 00-.928-.928zm-6.601 2.286a.991.991 0 110 1.983.991.991 0 010-1.983zm2.622 0a.991.991 0 110 1.983.991.991 0 010-1.983zm2.621 0a.991.991 0 11.001 1.983.991.991 0 010-1.983z" fill="#5CB615" fill-rule="nonzero"/></svg>
